static/assets/visa.svg

<svg fill="none" height="90" viewBox="0 0 90 90" width="90" xmlns="http://www.w3.org/2000/svg"><rect fill="#fff" height="88" rx="9" width="88" x="1" y="1"/><path d="m51.9894 20.2c-4.2176 0-7.9867 2.1468-7.9867 6.1131 0 4.5486 6.6846 4.8628 6.6846 7.1479 0 .9622-1.1228 1.8235-3.0405 1.8235-2.7217 0-4.7558-1.2035-4.7558-1.2035l-.8704 4.0024s2.3433 1.0166 5.4544 1.0166c4.6112 0 8.2397-2.2522 8.2397-6.2863 0-4.8065-6.7124-5.1113-6.7124-7.2322 0-.7538.9217-1.5796 2.8339-1.5796 2.1576 0 3.918.8752 3.918.8752l.8518-3.8657s-1.9154-.8114-4.6166-.8114zm-38.5872.2918-.1022.5835s1.7744.3189 3.3725.955c2.0577.7294 2.2043 1.1541 2.5508 2.473l3.7764 14.2958h5.0622l7.7986-18.3073h-5.0505l-5.0112 12.4472-2.0448-10.5509c-.1875-1.2075-1.1374-1.8963-2.3001-1.8963zm24.4892 0-3.962 18.3073h4.8162l3.9481-18.3073zm26.8614 0c-1.1613 0-1.7767.6105-2.2282 1.6775l-7.0559 16.6298h5.0505l.9772-2.7716h6.1531l.5942 2.7716h4.4564l-3.8878-18.3073zm.6569 4.9461 1.497 6.8698h-4.0107z" fill="#1434cb"/><path d="m39.214 51.2775h11.7211v21.1515h-11.7211z" fill="#ff5f00"/><path d="m39.9584 61.8537c0-4.2976 2.0093-8.1093 5.0977-10.5757-2.2698-1.7938-5.1349-2.8775-8.2606-2.8775-7.4047 0-13.3955 6.0165-13.3955 13.4532s5.9908 13.4533 13.3955 13.4533c3.1257 0 5.9908-1.0838 8.2606-2.8775-3.0884-2.4291-5.0977-6.2782-5.0977-10.5758z" fill="#eb001b"/><path d="m66.7495 61.8533c0 7.4366-5.9908 13.4532-13.3955 13.4532-3.1257 0-5.9908-1.0837-8.2606-2.8775 3.1256-2.4664 5.0977-6.2782 5.0977-10.5757 0-4.2976-2.0093-8.1093-5.0977-10.5758 2.2698-1.7937 5.1349-2.8775 8.2606-2.8775 7.4047 0 13.3955 6.054 13.3955 13.4533z" fill="#f79e1b"/><rect height="88" rx="9" stroke="#fff" stroke-width="2" width="88" x="1" y="1"/></svg>

<svg width="90" height="90" viewBox="0 0 90 90" fill="none" xmlns="http://www.w3.org/2000/svg">
<rect x="1" y="1" width="88" height="88" rx="9" fill="white"/>
<path d="M51.9894 20.2C47.7718 20.2 44.0027 22.3468 44.0027 26.3131C44.0027 30.8617 50.6873 31.1759 50.6873 33.461C50.6873 34.4232 49.5645 35.2845 47.6468 35.2845C44.9251 35.2845 42.891 34.081 42.891 34.081L42.0206 38.0834C42.0206 38.0834 44.3639 39.1 47.475 39.1C52.0862 39.1 55.7147 36.8478 55.7147 32.8137C55.7147 28.0072 49.0023 27.7024 49.0023 25.5815C49.0023 24.8277 49.924 24.0019 51.8362 24.0019C53.9938 24.0019 55.7542 24.8771 55.7542 24.8771L56.606 21.0114C56.606 21.0114 54.6906 20.2 51.9894 20.2ZM13.4022 20.4918L13.3 21.0753C13.3 21.0753 15.0744 21.3942 16.6725 22.0303C18.7302 22.7597 18.8768 23.1844 19.2233 24.5033L22.9997 38.7991H28.0619L35.8605 20.4918H30.81L25.7988 32.939L23.754 22.3881C23.5665 21.1806 22.6166 20.4918 21.4539 20.4918H13.4022ZM37.8914 20.4918L33.9294 38.7991H38.7456L42.6937 20.4918H37.8914ZM64.7528 20.4918C63.5915 20.4918 62.9761 21.1023 62.5246 22.1693L55.4687 38.7991H60.5192L61.4964 36.0275H67.6495L68.2437 38.7991H72.7001L68.8123 20.4918H64.7528ZM65.4097 25.4379L66.9067 32.3077H62.896L65.4097 25.4379Z" fill="#1434CB"/>
<path d="M39.214 51.2775H50.9351V72.429H39.214V51.2775Z" fill="#FF5F00"/>
<path d="M39.9584 61.8537C39.9584 57.5561 41.9677 53.7444 45.0561 51.278C42.7863 49.4842 39.9212 48.4005 36.7955 48.4005C29.3908 48.4005 23.4 54.417 23.4 61.8537C23.4 69.2904 29.3908 75.307 36.7955 75.307C39.9212 75.307 42.7863 74.2232 45.0561 72.4295C41.9677 70.0004 39.9584 66.1513 39.9584 61.8537Z" fill="#EB001B"/>
<path d="M66.7495 61.8533C66.7495 69.2899 60.7587 75.3065 53.354 75.3065C50.2283 75.3065 47.3632 74.2228 45.0934 72.429C48.219 69.9626 50.1911 66.1508 50.1911 61.8533C50.1911 57.5557 48.1818 53.744 45.0934 51.2775C47.3632 49.4838 50.2283 48.4 53.354 48.4C60.7587 48.4 66.7495 54.454 66.7495 61.8533Z" fill="#F79E1B"/>
<rect x="1" y="1" width="88" height="88" rx="9" stroke="white" stroke-width="2"/>
</svg>
